X:245
T:O'Rourke's Reel
R:reel
H:See also "Westport Chorus", #331, "Four Courts", #827,
H:"Green Pigeon", #900
Z:id:hn-reel-245
M:C|
K:Amix
(3cBA eA fAed|cAec dfed|cA~A2 fd~d2|1 fage d2ed:|2 fage d2ef||
g2fg ~e3f|gfed eaaf|gefd ed (3Bcd|fage d2ef|
g2fg ~e3f|gfed ea~a2|bgaf gfed|eaag aged||

